symbols/web/local_post_office/materialsymbolssharp/local_post_office_wght300fill1_24px.svg

<svg xmlns="http://www.w3.org/2000/svg" height="24" width="24"><path d="M2.5 21.5v-9h4V8q0-2.3 1.6-3.9T12 2.5h4q2.3 0 3.9 1.6T21.5 8v13.5H20v-3h-4.5v3Zm13-4.5H20V8q0-1.65-1.175-2.825Q17.65 4 16 4h-4q-1.65 0-2.825 1.175Q8 6.35 8 8v4.5h7.5Zm-5.25-7.25v-1.5h7.5v1.5ZM9 18.225l5-2.85V14l-5 2.85L4 14v1.375Z"/></svg>

<svg xmlns="http://www.w3.org/2000/svg" height="24" width="24"><path d="M2.5 21.5V12.5H6.5V8Q6.5 5.7 8.1 4.1Q9.7 2.5 12 2.5H16Q18.3 2.5 19.9 4.1Q21.5 5.7 21.5 8V21.5H20V18.5H15.5V21.5ZM15.5 17H20V8Q20 6.35 18.825 5.175Q17.65 4 16 4H12Q10.35 4 9.175 5.175Q8 6.35 8 8V12.5H15.5ZM10.25 9.75V8.25H17.75V9.75ZM9 18.225 14 15.375V14L9 16.85L4 14V15.375Z"/></svg>
